categories/16/system-help.svg

<?xml version="1.0" encoding="UTF-8" standalone="no"?>
<svg
   xmlns:dc="http://purl.org/dc/elements/1.1/"
   xmlns:cc="http://creativecommons.org/ns#"
   xmlns:rdf="http://www.w3.org/1999/02/22-rdf-syntax-ns#"
   xmlns:svg="http://www.w3.org/2000/svg"
   xmlns="http://www.w3.org/2000/svg"
   xmlns:sodipodi="http://sodipodi.sourceforge.net/DTD/sodipodi-0.dtd"
   xmlns:inkscape="http://www.inkscape.org/namespaces/inkscape"
   height="16"
   width="16"
   version="1.1"
   id="svg4"
   sodipodi:docname="system-help-symbolic.svg"
   inkscape:version="0.92.2 (unknown)">
  <metadata
     id="metadata10">
    <rdf:RDF>
      <cc:Work
         rdf:about="">
        <dc:format>image/svg+xml</dc:format>
        <dc:type
           rdf:resource="http://purl.org/dc/dcmitype/StillImage" />
        <dc:title></dc:title>
      </cc:Work>
    </rdf:RDF>
  </metadata>
  <defs
     id="defs8" />
  <sodipodi:namedview
     pagecolor="#808080"
     bordercolor="#808080666"
     borderopacity="1"
     objecttolerance="10"
     gridtolerance="10"
     guidetolerance="10"
     inkscape:pageopacity="0"
     inkscape:pageshadow="2"
     inkscape:window-width="787"
     inkscape:window-height="480"
     id="namedview6"
     showgrid="false"
     inkscape:zoom="14.75"
     inkscape:cx="8"
     inkscape:cy="8"
     inkscape:window-x="118"
     inkscape:window-y="62"
     inkscape:window-maximized="0"
     inkscape:current-layer="svg4" />
  <path
     color="#808080"
     d="M8 0C3.576 0 0 3.576 0 8c0 4.424 3.576 8 8 8 4.424 0 8-3.576 8-8 0-4.424-3.576-8-8-8zm0 1c3.87 0 7 3.13 7 7s-3.13 7-7 7-7-3.13-7-7 3.13-7 7-7zm.063 2c-1.252-.024-2.564.47-2.97 1.438-.234.538-.006 1.5.782 1.5.46 0 .653-.315.688-.594.026-.212-.044-.388-.094-.563-.057-.199.173-.593.437-.75.221-.131.466-.179.5-.187.795-.196 1.576.255 1.907.781.33.526-.04 1.317-.563 2.094-.523.776-1.065 1.657-1.062 2.593 0 .357-.054.481-.032.626.018.115.403.116.688.062-.025-.907.164-1.814 1-2.438.883-.705 1.746-1.584 1.656-2.625-.02-1.003-1.178-1.793-2.406-1.906A4.39 4.39 0 0 0 8.063 3zm-.344 8.219c-.603.148-.962.914-.563 1.406.408.621 1.554.453 1.75-.25.204-.547-.307-1.165-.937-1.156-.095-.005-.164-.021-.25 0z"
     fill="#808080"
     overflow="visible"
     style="text-indent:0;text-transform:none;marker:none"
     id="path2" />
</svg>

<svg xmlns="http://www.w3.org/2000/svg" width="16" height="16" version="1.1">
 <path style="fill:#808080" d="M 8,0 C 3.576,0 0,3.576 0,8 0,12.424 3.576,16 8,16 12.424,16 16,12.424 16,8 16,3.576 12.424,0 8,0 Z M 8,1 C 11.87,1 15,4.13 15,8 15,11.87 11.87,15 8,15 4.13,15 1,11.87 1,8 1,4.13 4.13,1 8,1 Z M 8.063,3 C 6.811,2.976 5.499,3.47 5.093,4.438 4.859,4.976 5.087,5.938 5.875,5.938 6.335,5.938 6.528,5.623 6.563,5.344 6.589,5.132 6.519,4.956 6.469,4.781 6.412,4.582 6.642,4.188 6.906,4.031 7.127,3.9 7.372,3.852 7.406,3.844 8.201,3.648 8.982,4.099 9.313,4.625 9.643,5.151 9.273,5.942 8.75,6.719 8.227,7.495 7.685,8.376 7.688,9.312 7.688,9.669 7.634,9.793 7.656,9.938 7.674,10.053 8.059,10.054 8.344,10 8.319,9.093 8.508,8.186 9.344,7.562 10.227,6.857 11.09,5.978 11,4.937 10.98,3.934 9.822,3.144 8.594,3.031 A 4.39,4.39 0 0 0 8.063,3 Z M 7.719,11.219 C 7.116,11.367 6.757,12.133 7.156,12.625 7.564,13.246 8.71,13.078 8.906,12.375 9.11,11.828 8.599,11.21 7.969,11.219 7.874,11.214 7.805,11.198 7.719,11.219 Z"/>
</svg>
